src/icons/svgs/24/file-xmark.svg

<svg width="24" height="24" viewBox="0 0 24 24" fill="none" xmlns="http://www.w3.org/2000/svg">
<path d="M19.2208 5.46527L16.1113 2.69543C15.6083 2.25019 14.9292 2 14.225 2H6.66667C5.19417 2 4 3.06318 4 4.375L4.00025 18.625C4.00025 19.9364 5.194 21 6.66692 21H17.3333C18.8 21 20 19.9312 20 18.625V7.14336C20 6.51621 19.7208 5.91133 19.2208 5.46527ZM18 18.625C18 18.9529 17.7015 19.2188 17.3333 19.2188H6.6675C6.29933 19.2188 6.00083 18.9529 6.00083 18.625L6 4.37982C6 4.05193 6.2985 3.78607 6.66667 3.78607H13.3333V6.75C13.3333 7.40572 13.9304 7.9375 14.6667 7.9375H18V18.625ZM13.9583 10.8691L12 12.617L10.0042 10.8691C9.61354 10.5212 8.98083 10.5212 8.59 10.8691C8.19917 11.217 8.19938 11.7805 8.59 12.1286L10.5875 13.875L8.62792 15.6203C8.23729 15.9682 8.23729 16.5317 8.62792 16.8797C9.01854 17.2275 9.65083 17.2278 10.0421 16.8797L12 15.133L13.9596 16.8783C14.3502 17.226 14.9825 17.2263 15.3738 16.8783C15.7644 16.5304 15.7644 15.9669 15.3738 15.6188L13.4125 13.875L15.3721 12.1297C15.7627 11.7818 15.7627 11.2183 15.3721 10.8703C14.9815 10.5222 14.35 10.524 13.9583 10.8691Z" fill="black"/>
</svg>

<svg width="24" height="24" viewBox="0 0 24 24" xmlns="http://www.w3.org/2000/svg">
    <path d="m19.22 5.465-3.109-2.77A2.855 2.855 0 0 0 14.225 2H6.667C5.194 2 4 3.063 4 4.375v14.25C4 19.936 5.194 21 6.667 21h10.666C18.8 21 20 19.931 20 18.625V7.143c0-.627-.28-1.232-.78-1.678zM18 18.625c0 .328-.299.594-.667.594H6.668c-.369 0-.667-.266-.667-.594L6 4.38c0-.328.298-.594.667-.594h6.666V6.75c0 .656.597 1.188 1.334 1.188H18v10.687zm-4.042-7.756L12 12.617l-1.996-1.748a1.089 1.089 0 0 0-1.414 0 .823.823 0 0 0 0 1.26l1.998 1.746-1.96 1.745a.823.823 0 0 0 0 1.26c.39.348 1.023.348 1.414 0L12 15.133l1.96 1.745c.39.348 1.022.348 1.414 0a.823.823 0 0 0 0-1.26l-1.962-1.743 1.96-1.745a.823.823 0 0 0 0-1.26 1.091 1.091 0 0 0-1.414 0z"/>
</svg>
